!!!OTL: Es hat sich ein Bauer ein Töchterlein (3-81), S. 224
!!!id: P1054
**kern
*clefG2
*k[f#]
*G:
{4d
=1
4g
4g
4g
=2
4g
4g
4a
=3
4g
4f#
4e
=4
2d}
=5
{4b
=6
2g
4b
=7
4.b
8cc
4dd
=8
4.dd
8cc
4b
=9
[2b
8.b]
16a
=10
2a}
=11
{8.d
16d
=12
4cc
4cc
4cc
=13
4.cc
8b
4a
=14
2b
4b
=15
4b
4a}
=16
{4g
=17
4a
4a
4a
=18
4.cc
8b
4a
=19
2.a
=20
2g}
=21
{8.d
16d
=22
4cc
4cc
4cc
=23
4.cc
8b
4a
=24
4.b
8b
8b
8b
=25
4b
4a}
=26
{4g
=27
4a
4a
4a
=28
4.cc
8b
4a
=29
2.a
=30
2g}
==
*-
!!!minrhy: 16
!!!meters: 3/4 ]  ZZ[6
!!!cut: Es hat sich ein Bauer ein Töchterlein (3-81), S. 224
!!!reg: Lothringen
!!!trd: PINCK, Louis: Verklingende Weisen, Bd3, Metz 1933
!!!rhy1: X__  X__X__X__  X__X__X__  X__X__X__  X___
!!!rhy2: X__  X___X__  X__.X_X__  X__.X_X__  X___^_.X  X___
!!!key: P1054  16  G 3/4 ]  ZZ[6
!!!mod: HEPTATONIK IONISCH]  AMBITUS[8
!!!kad: -522121
!!!akz: 111-5_13532_4433_2421_4433_2421_
!!!fot: 'a__b__c__d__cv_d__
!!!for: 'a__b__c__d__e__d__
!!!fok: '^__Sd_^a_^__^a_^__
!! PHRAS[AUFTAKTIG]
!!!fkt: Treue-Untreue
!! LOTH VKL
!! PR[40] 2K[0] 2G[7] 3K[2] 3G[2] 4A[7] 4Ü[0] 5A[0] 6K[0] 6G[11]
!! 7K[0] 7G[0] 8A[0] MEHR[0] SI[29] ABS[45] SR[7] SP[22]
!! ST[13] 2k[0] 2g[11] 3k[4] 3g[4] 4d[2] 4ü[0] 5d[4] 6k[0] 6g[4]
!! 7k[0] 7g[0] 8d[0] mehr[0] si[31] dm[-2] sr[11] sp[20]
!! 1F[54] 2F[37] 3F[2] 4F[0] LF[0] 2P[2] 3P[4] 4P[0] TRI[0] DF[5] AB[46]
!! TF[0] U3K[0] U3[0] U4[0] U4Ü[0] U5[26] U6K[0] U6[0] U7K[0] U7[0]
!! N1[13] N2K[0] N2[13] N3K[0] N3[41] N4[0] N4Ü[0] N5[7] N6K[0] N6[0]
!!!n7k: 0] N7[0] O1[0] O2K[0] O2[0] O3K[0] O3[0] HÖ[0
